X: 90
T:Old John's Jig
T:Port Shean Tseain
R:Jig
S:Bill Dundon
M:6/8
L:1/8
Q:3/8=120
K:Ador
cAA cAA|GEF GAB|cAA A2G|Add ded|
cAA cAA|GEF GAB|cde =fed|cAG A3:|
efg eaa|ged cAG|efg eaa|bag a3|
efg eaa|ged cAA|cde =fed|cAG A3:|
